!!!COM: Ernest Chausson
!!!CNT: Francais
!!!TXO: Francais
!!!OTL: Nanny
!!!OPS: Op. 2
!!!ONM: No. 1
!!!LYR: Leconte de Lisle
!!!ENC: Jacob Pegg
!!!YOR: 20 Songs for Voice and Piano, International Music Company, New York City, January, 1952
!!!ODT: 1880/
!!NB: Vocal melody and text only encoded.
**kern	**silbe
*clef G2	*
*k[f#c#]	*
*M3/4	*
=3	=3
{4dd	{Bois
4cc#	chers
8ccn	aux
8ccn	ra-
=4	=4
[4b	-miers,
8b]	|
8r	.
8r	.
8b-	pleu-
=5	=5
2a	-rez,
8f#	doux
8d	fuill-
=6	=6
4d	-a-
4d}	-ges,}
4r	.
=7	=7
8.r	.
{16b	{Et
4b	toi,
8.b	sour-
16b	-ce
=8	=8
4ccn	vi-
4ccn	-ve,
8.r	.
16ccn	et
=9	=9
2cc#	vous,
8.cc#	frais
16cc#	sen-
=10	=10
[2ee-	-tiers;
8ee-]	|
8ee-	Pleu-
=11	=11
4dd	-rez,
8cc#	o^
8cc#	bruy-
12en	-e\-
12en	-res
12en	sau-
=12	=12
4b-	-va-
4e-}	-ges,}
8r	.
{8b-	{Buis-
=13	=13
8.a	-sons
16a	de
8a	houx
8r	.
8r	.
8fn	et
=14	=14
8fn	d'e/-
8d	-glan-
4d}	-tiers.}
8r	.
{8a	{Prin-
=15	=15
2a	-temps,
8A#	roi
8A#	fleu-
=16	=16
4B-	-ri
8B-	de
8B-	la
8d	verte
8c#	an-
=17	=17
4c#	-ne/-
4c#}	-e,}
4r	.
=18	=18
4r	.
{4a	{O
8f#	jeu-
8f#	-ne
=19	=19
4c#	Dieu,
4r	.
(8c#	pleu-
8B)	|
=20	=20
4B}	-re!}
8r	.
{8b	{E/-
12b	-te/-
12b	mu^r-
12b	-ris-
=21	=21
4.b	-sant,
8B	cou-
8B	-pe
8B	ta
=22	=22
4.cn	tres-
8cn	-se
8e	cou-
8d#	-ron-
=23	=23
4d#	-ne/-
4d#}	-e,}
8r	.
{8b	{Et
=24	=24
4.ccn	pleure,
8fn	Au-
[4fn	-tom-
=25	=25
4.fn]	|
8fn	-ne
8a	rou-
8ccn	-gis-
=26	=26
[2cc#	-sant.
8cc#]	|
8a	L'an-
=27	=27
4dd	-gois-
4cc#	-se
4ccn	d'ai-
=28	=28
2b	-mer
8g#	brise
8g#	un
=29	=29
[2b-	coeur
8b-]	|
8a	fi-
=30	=30
4a	-de\-
4a}	-le.}
4r	.
=31	=31
{8a	{Terre
8a	et
[4ccn	ciel,
8ccn]	|
8ccn	pleu-
=32	=32
[4cc#	-rez!
8cc#]}	|}
8r	.
4r	.
=33	=33
{4.ffn	{Oh!
8dd	que
8b-	je
8a	l'ai-
=34	=34
[2g#	-mais!
8g#]}	|}
8r	.
=35	=35
4r	.
4r	.
{8a	{Cher
8fn	pa-
=36	=36
4.e	-ys,
8e	ne
12b-	par-
12b-	-le
12b-	plus
=37	=37
4a	d'el-
4a}	-le;}
8r	.
{8cc	{Nan-
=38	=38
[4b	-ny
8b]}	|}
8r	.
8r	.
{8b-	{ne
=39	=39
8a	re-
8a	-vien-
4.fn	-dra
8d	ja-
=40	=40
[2d	-mais!
8d]}	|}
8r	.
*-	*-
